X:1
T:The Miller's Maggot
R:Jig
S:Solas: Solas (1996)
Z:Gwenael Lambrouin 12/Jan/2004
M:6/8
L:1/8
Q:3/8=120
K:G
|: G2A B2A | B2A BGE | G2A B2A | Bee edB |
   G2A B2A | B2A BGE | gfe dBA | Bee edB :|
|: e2f gfe | d2B BAB | e2f gfg | a2a bge |
   e2f gfe | d2B BAG | A2B cAB | cee edB :|

